X:308
T:Laird of Drumblair, The
C:J.S. Skinner
R:Strathspey
M:C
%%printtempo 0
Q:120
K:A
uE|\
"A"{/G}[A2A2] (c>A) ([A,E]>A)(c>A)| "A" {/A}a2 (g>a) "D"f>a"A"e>c| "D"(3def (3efg "A"(3aed (3cBA| "Bm"(3Bcd (3cBA "E7"(3GFE (3dcB|
"A"{/G}[A2A2] (c>A) ([A,E]>A)(c>A)| "A" {/A}a2 (g>a) "D"f>a"A"e>c| "D"(3def (3efg "A"(3aed (3cBA| "E7"GFE (3dcB "A"A2g2||
"A"{/g}a2 (e>a)  (c>a)(A>a)| (3cBA (e>g) a>A c<a| "Bm"{/^a}b2(f>b) (d>b)(B>b)| (3dcB (d>f) {/^a}b>B d<b|
"A"{/g}a2 (e>a)  (c>a)(A>a)| (3cBA (e>g) a>A c>A| "D"(3def (3efg "A"(3aed (3cBA| "E7"(3GFE (3dcB "A"{/G}A2 A||
